svgs/motorola_camera3.svg

<svg width="24" height="24" viewBox="0 0 24 24" fill="none" xmlns="http://www.w3.org/2000/svg">
<path d="M17.2 13C17.2 14.7673 15.7673 16.2 14 16.2C12.2327 16.2 10.8 14.7673 10.8 13C10.8 11.2327 12.2327 9.8 14 9.8C15.7673 9.8 17.2 11.2327 17.2 13Z" fill="#FFF1C0"/>
<path fill-rule="evenodd" clip-rule="evenodd" d="M4 7C2.89543 7 2 7.89543 2 9V18C2 19.1046 2.89543 20 4 20H20C21.1046 20 22 19.1046 22 18V8C22 6.89543 21.1046 6 20 6H8L7 7H6V6H4V7ZM14 18C11.24 18 9 15.76 9 13C9 10.24 11.24 8 14 8C16.76 8 19 10.24 19 13C19 15.76 16.76 18 14 18ZM7 10C7 10.5523 6.55228 11 6 11C5.44772 11 5 10.5523 5 10C5 9.44771 5.44772 9 6 9C6.55228 9 7 9.44771 7 10Z" fill="#FFF1C0"/>
</svg>

<svg xmlns="http://www.w3.org/2000/svg" viewBox="0 0 24 24"><path d="M4 7a2 2 0 0 0-2 2v9a2 2 0 0 0 2 2h16a2 2 0 0 0 2-2V8a2 2 0 0 0-2-2H8L7 7H6V6H4zm10 11c-2.76 0-5-2.24-5-5s2.24-5 5-5 5 2.24 5 5-2.24 5-5 5m-7-8a1 1 0 1 1-2 0 1 1 0 0 1 2 0m10.2 3a3.2 3.2 0 1 1-6.4 0 3.2 3.2 0 0 1 6.4 0"/></svg>
